X: 31793
T: Patsy Cawley's
R: jig
M: 6/8
K: Cmajor
|:G|CEG A2 G|cGG AGF|EEE FEF|GEC D3|
CEG A2 G|cGG AGF|EFG cGF|1 ECC C2:|2 ECC Cef||
gec cBc|gec dcA|GFE Gce|edc def|
gec cBc|gec dcA|GFE Gce|dcB cef|
gec cBc|gec dcA|GFE Gce|edc d2 e|
f3 e3|gec dcA|GFE Gce|dcB c2||

